X: 9055
T: Girl from Old Bride Street (with piano acc.)
C: BB
R: jig
Q: 1/8=320
M: 6/8
L: 1/8
V: 1 program 1 73 %flute
V: 2 volume=70 clef=bass m=D program 1 00
K: D
[V:1] A | "D"DFA dAd | "Bm"FAd fef | "D"agf "G"gfe | "Bm"fdB "G"BAB |
[V:2] z|D,2[AFD]A,,2[AFD]|B,,2[BDF] F,,2[BDF]|D,2[AFD]G,,2[GDB]|B,,2[BFD]G,,2[GDB]|
%
[V:1] "D"DFA dAd | "Bm"FAd fef | "G"bag "D"fgf | "A"edc "D"d2 :|
[V:2] D,2[AFD]A,,2[AFD]|B,,2[BDF]F,,2[BDF]|G,,2[GDB]D,2[AFD]|A,,2[AEC][D,2A,,2F2]:|
%
[V:1] A |"Bm"FBB fBB | "Bm"f2 a fef | "D"d2f "A"c2e | "Bm"dBA B2 A |
[V:2] z |B,,2[BDF]F,,2[BDF]|B,,2[BDF] F,,2[BDF]|D,2[AFD]A,,2[AEC]|B,,2[BDF]F,,2[BDF]|
%
[V:1] "Bm"FBB fBB | "F#m7"afe "D"dfa | "G"bag "D"fgf | "A"edc "D"d2 :|
[V:2] B,,2[BDF]D,2[BDF]|F,,2[ECA]D,2[AFD]|G,,2[GDB]D,2[AFD]|A,,2[AEC][D,2A,,2F2]:|
%%%%%%%%tune repeat
[V:1] A | "D"DFA dAd | "Bm"FAd fef | "D"agf "G"gfe | "Bm"fdB "G"BAB |
[V:2] z|D,2[AFD]A,,2[AFD]|B,,2[BDF] F,,2[BDF]|D,2[AFD]G,,2[GDB]|B,,2[BFD]G,,2[GDB]|
%
[V:1] "D"DFA dAd | "Bm"FAd fef | "G"bag "D"fgf | "A"edc "D"d2 :|
[V:2] D,2[AFD]A,,2[AFD]|B,,2[BDF]F,,2[BDF]|G,,2[GDB]D,2[AFD]|A,,2[AEC][D,2A,,2F2]:|
%
[V:1] A |"Bm"FBB fBB | "Bm"f2 a fef | "D"d2f "A"c2e | "Bm"dBA B2 A |
[V:2] z |B,,2[BDF]F,,2[BDF]|B,,2[BDF] F,,2[BDF]|D,2[AFD]A,,2[AEC]|B,,2[BDF]F,,2[BDF]|
%
[V:1] "Bm"FBB fBB | "F#m7"afe "D"dfa | "G"bag "D"fgf |1 "A"edc "D"d2 :|2 "A"edc d3-|d3 z3||
[V:2] B,,2[BDF]D,2[BDF]|F,,2[ECA]D,2[AFD]|G,,2[GDB]D,2[AFD]|1 A,,2[AEC][D,2A,,2F2]:|2\
A,,2[AEC][D,3-A,3-F3-]|[D,3A,3F3] z3||


%%%%%%%%%%%%%%%%%%%%%%%%%%%%%%%%%%%%%%%%%%%

